Production/EA4S_WordDrawings/SVG/singles_SVG/meat.svg

<?xml version="1.0" encoding="UTF-8" standalone="no"?><!DOCTYPE svg PUBLIC "-//W3C//DTD SVG 1.1//EN" "http://www.w3.org/Graphics/SVG/1.1/DTD/svg11.dtd"><svg width="100%" height="100%" viewBox="0 0 546 410" version="1.1" xmlns="http://www.w3.org/2000/svg" xmlns:xlink="http://www.w3.org/1999/xlink" xml:space="preserve" style="fill-rule:evenodd;clip-rule:evenodd;stroke-linejoin:round;stroke-miterlimit:1.41421;"><g id="meat"><path d="M60.58,135.559c-18.719,-1.062 -35.601,7.853 -45.688,23.667c-10.128,15.878 -14.254,35.824 -14.351,54.458c-0.073,14.277 3.497,28.326 6.156,42.264c2.795,14.652 2.936,29.293 4.674,44.041c1.54,13.06 5.053,25.484 11.407,37.035c5.757,10.465 13.836,19.764 22.382,28.035c34.393,33.286 85.515,51.251 133.006,42.232c20.208,-3.837 41.114,-12.859 52.236,-31.107c9.391,-15.406 10.301,-33.489 6.909,-50.855c-3.567,-18.266 -10.967,-35.483 -19.671,-51.848c-10.575,-19.884 -22.942,-39.037 -36.562,-56.963c-15.156,-19.949 -32.51,-38.095 -52.369,-53.404c-9.957,-7.676 -20.676,-14.34 -31.963,-19.871c-5.425,-2.658 -11.024,-4.943 -16.711,-6.975c-2.982,-1.064 -6.003,-1.898 -9.071,-2.672c-3.612,-0.91 -7.606,-0.238 -11.279,0.062c-4.017,0.328 -8.876,6.343 -4.437,9.376c2.304,1.574 4.537,3.686 7.169,4.607c2.838,0.992 5.64,2.084 8.472,3.095c6.158,2.198 12.139,4.873 17.981,7.802c11.245,5.636 21.763,12.652 31.658,20.393c19.917,15.579 36.816,35.109 51.731,55.415c12.902,17.565 24.743,36.161 34.517,55.66c8.093,16.146 15.067,33.613 16.753,51.733c1.505,16.174 -2.746,30.469 -14.979,40.068c-16.528,12.973 -42.396,14.903 -62.572,13.217c-24.129,-2.017 -47.468,-10.502 -67.979,-23.206c-20.412,-12.644 -39.49,-30.981 -49.068,-53.304c-8.262,-19.254 -6.231,-40.305 -10.098,-60.482c-3.734,-19.493 -9.76,-38.409 -8.798,-58.462c0.675,-14.086 4.174,-28.35 12.005,-40.232c8.686,-13.177 21.281,-19.949 37.157,-19.743c1.909,0.025 3.854,-3.896 1.383,-4.036Z" style="fill:#010101;fill-rule:nonzero;"/><path d="M45.166,139.934c6.016,-6.887 15.031,-10.956 23.351,-14.285c10.293,-4.118 21.048,-7.297 31.826,-9.857c21.69,-5.152 43.755,-9.739 65.759,-13.291c26.262,-4.24 54.525,-5.91 79.563,4.701c10.047,4.257 19.206,13.41 30.582,13.217c6.05,-0.103 12.732,-3.432 17.703,-6.609c5.115,-3.271 8.949,-7.927 11.256,-13.527c1.748,-4.241 2.807,-8.636 5.459,-12.458c1.904,-2.745 4.665,-3.938 8.438,-4.947c7.162,-1.916 16.082,1.05 21.532,5.793c3.152,2.743 5.219,6.05 6.545,9.979c1.426,4.222 -0.547,9.07 -1.621,13.173c-1.183,4.523 -2.527,9.211 -2.269,13.936c0.269,4.918 4.228,7.594 8.191,9.688c8.1,4.28 17.846,5.782 24.887,11.87c6.76,5.844 13.907,15.045 12.296,24.582c-1.617,9.566 -13.803,12.156 -21.627,14.168c-12.279,3.156 -25.148,7.631 -31.694,19.41c-3.691,6.642 -3.843,14.478 -5.563,21.727c-2.584,10.879 -5.525,21.703 -9.248,32.252c-6.662,18.879 -16.321,36.085 -27.785,52.439c-11.303,16.127 -24.342,30.947 -39.233,43.848c-7.074,6.128 -14.603,11.639 -22.568,16.547c-4.044,2.491 -8.227,4.75 -12.474,6.872c-4.783,2.39 -8.937,5.32 -13.497,8.061c-2.683,1.611 -6.56,9.051 -0.78,9.524c2.73,0.224 5.482,0.454 8.198,0.008c3.478,-0.573 6.399,-2.656 9.54,-4.144c6.204,-2.94 12.155,-6.395 17.93,-10.102c11.487,-7.374 22.124,-16.04 31.955,-25.491c19.6,-18.841 35.794,-40.891 49.294,-64.423c13.68,-23.844 21.815,-51.368 26.543,-78.319c0.637,-3.631 1.427,-5.917 4.502,-8.073c4.881,-3.423 11.47,-4.462 17.132,-5.917c11.771,-3.025 23.566,-8.25 30.489,-18.766c12.278,-18.651 -0.329,-43.654 -19.177,-52.405c-4.319,-2.006 -8.855,-3.552 -13.26,-5.356c-2.083,-0.854 -4.128,-1.789 -6.118,-2.842c-0.81,-0.428 -1.569,-0.926 -2.323,-1.442c-0.646,-0.443 0.501,2.087 0.404,0.318c-0.207,-3.808 1.971,-9.077 2.961,-13.032c1.351,-5.394 1.861,-10.343 0.545,-15.772c-4.781,-19.728 -28.85,-27.587 -46.508,-22.146c-10.971,3.38 -19.104,12.177 -23.279,22.636c-1.187,2.972 -2.428,7.902 -3.963,9.39c-2.567,2.488 -8.196,5.11 -11.779,3.665c-4.329,-1.746 -8.182,-4.842 -12.345,-6.961c-5.375,-2.734 -10.706,-5.232 -16.45,-7.124c-11.419,-3.761 -23.109,-5.168 -35.092,-5.448c-24.755,-0.579 -49.514,4.988 -73.422,10.818c-18.301,4.463 -36.561,9.215 -54.446,15.152c-16.093,5.343 -34.637,12.408 -45.421,26.229c-3.097,3.965 2.334,5.853 5.061,2.734Z" style="fill:#010101;fill-rule:nonzero;"/><path d="M75.498,253.202c0.471,-0.061 1.125,-0.097 1.416,-0.543c0.246,-0.375 0.273,-0.889 0.071,-1.294c-0.149,-0.299 -0.582,-0.11 -0.68,0.139c-0.092,0.232 -0.092,0.491 -0.183,0.718c0.107,-0.268 0.43,-0.219 0.232,-0.232c-0.142,-0.01 -0.283,-0.033 -0.424,-0.053c-0.876,-0.121 -1.335,1.38 -0.432,1.265Z" style="fill:#010101;fill-rule:nonzero;"/><path d="M74.208,245.299c-5.065,11.098 2.996,25.207 8.54,34.59c7.477,12.653 17.254,25.692 30.141,33.252c11.182,6.56 23.534,2.368 27.43,-10.357c2.41,-7.87 -1.438,-17.257 -4.639,-24.303c-4.224,-9.294 -9.938,-18.015 -16.083,-26.139c-7.413,-9.802 -15.696,-17.433 -27.366,-21.799c-5.54,-2.073 -11.299,-3.092 -16.78,-0.318c-6.069,3.071 -9.206,13.16 -2.725,17.18c2.371,1.471 5.942,-0.868 6.839,-3.107c0.887,-2.212 1.315,-3.999 1.41,-6.385c0.055,-1.368 -0.609,1.173 -1.854,1.635c1.857,-0.689 6.344,0.668 8.826,1.443c6.204,1.938 11.848,5.271 16.423,9.843c6.636,6.632 12.187,14.604 17.151,22.523c4.894,7.808 9.807,16.918 10.613,26.252c1.317,15.22 -14.704,7.069 -21.17,1.8c-12.055,-9.826 -21.702,-23.312 -28.543,-37.184c-2.454,-4.978 -6.5,-13.027 -5.227,-18.787c0.457,-2.058 -2.397,-1.434 -2.986,-0.139Z" style="fill:#010101;fill-rule:nonzero;"/><path d="M349.187,89.01c11.449,-5.147 22.203,-11.613 32.827,-18.282c10.63,-6.673 21.633,-13.771 30.87,-22.282c9.154,-8.436 16.09,-18.215 22.663,-28.705c1.759,-2.807 4.342,-8.465 7.683,-9.708c3.664,-1.363 9.178,10.054 10.507,12.181c5.394,8.625 11.261,17.15 18.917,23.935c8.24,7.302 18.104,12.161 28.452,15.685c8.788,2.993 18.57,5.924 25.617,12.249c7.69,6.903 7.04,17.315 2.43,25.853c-4.834,8.953 -15.717,13.826 -25.025,16.344c-13.88,3.754 -28.544,0.279 -42.591,-0.395c-14.376,-0.69 -26.715,2.225 -38.591,10.404c-9.806,6.754 -18.56,15.428 -30.604,17.858c-5.516,1.113 -8.513,11.782 -0.934,11.144c12.01,-1.01 21.749,-8.901 31.022,-15.889c4.443,-3.348 8.967,-6.496 13.991,-8.922c6.35,-3.065 14.427,-2.989 21.302,-2.657c13.928,0.673 27.726,3.528 41.634,0.999c11.244,-2.045 21.866,-6.791 30.635,-14.155c8.793,-7.384 14.277,-17.943 14.995,-29.392c0.641,-10.199 -4.36,-18.048 -12.394,-23.868c-7.926,-5.742 -17.923,-8.49 -27.078,-11.575c-9.923,-3.345 -19.596,-8.916 -27.097,-16.244c-4.593,-4.486 -8.507,-9.655 -12.329,-14.795c-4.311,-5.798 -8.607,-13.051 -15.023,-16.706c-12.607,-7.182 -22.128,13.669 -27.006,21.39c-8.916,14.106 -21.419,26.291 -34.972,35.941c-13.454,9.58 -28.228,17.125 -41.446,27.018c-1.781,1.331 -0.427,3.461 1.545,2.574Z" style="fill:#010101;fill-rule:nonzero;"/><path d="M45.821,155.693c-16.949,0.003 -21.88,20.987 -23.367,34.427c-2.497,22.564 8.232,43.174 9.215,65.538c0.577,13.154 -0.947,26.171 1.592,39.22c2.516,12.929 9.156,23.412 17.259,33.561c15.421,19.316 35.577,35.262 58.471,44.706c13.987,5.771 28.624,8.354 43.583,10.022c15.229,1.699 31.044,1.138 43.676,-8.551c10.784,-8.271 16.839,-20.668 15.976,-34.293c-0.832,-13.121 -8.295,-26.129 -20.347,-31.719c-2.373,-1.101 -7.042,2.005 -5.47,4.801c5.284,9.395 11.854,18.744 13.27,29.679c1.369,10.569 -3.431,19.608 -12.409,25.094c-10.499,6.415 -25.297,4.016 -36.801,2.583c-12.589,-1.568 -24.686,-4.146 -36.443,-9.023c-23.349,-9.688 -42.566,-26.561 -58.089,-46.234c-8.357,-10.591 -12.689,-22.12 -13.808,-35.523c-1.117,-13.392 0.11,-26.696 -2.657,-39.959c-3.465,-16.6 -10.255,-31.937 -10.498,-49.107c-0.156,-11.103 1.553,-32.615 16.476,-33.476c0.957,-0.058 1.646,-1.746 0.371,-1.746Z" style="fill:#010101;fill-rule:nonzero;"/><path d="M57.181,163.163c13.422,5.949 25.319,13.559 36.607,22.921c10.637,8.823 20.54,18.581 30.637,28.011c19.874,18.56 41.381,39.351 50.15,65.784c1.568,4.728 9.645,-0.343 8.117,-4.627c-9.617,-26.976 -31.444,-47.753 -52.204,-66.478c-10.476,-9.448 -21.071,-18.846 -32.201,-27.518c-11.835,-9.221 -25.257,-17.374 -40.348,-19.34c-0.541,-0.07 -1.497,0.918 -0.758,1.247Z" style="fill:#010101;fill-rule:nonzero;"/><path d="M238.321,124.979c9.308,5.637 19.148,10.485 28.306,16.371c9.598,6.168 17.441,14.838 23.611,24.376c11.922,18.428 17.305,41.465 14.848,63.241c-2.754,24.417 -15.008,47.867 -28.709,67.837c-6.613,9.639 -12.731,19.985 -21.323,28.044c-4.244,3.98 -9.759,6.948 -14.468,10.374c-1.357,0.987 -2.557,2.239 -3.771,3.391c-0.719,0.683 -1.438,1.364 -2.168,2.035c-1.062,0.976 -2.014,1.112 0.516,0.112c1.271,0.249 2.541,0.498 3.813,0.748c-0.035,-0.04 -0.071,-0.079 -0.106,-0.117c0.201,0.935 0.403,1.871 0.604,2.807c0.016,-0.336 0.098,-0.657 0.245,-0.964c0.538,-1.614 -0.612,-3.33 -2.217,-3.628c-2.397,-0.444 -4.507,1.314 -5.599,3.263c-0.646,1.153 -1.326,2.845 -0.626,4.135c0.631,1.163 1.78,2.063 3.212,1.793c3.388,-0.642 5.59,-3.077 8.002,-5.364c4.115,-3.902 8.988,-6.727 13.574,-10.021c10.693,-7.68 17.961,-19.634 25.095,-30.46c14.681,-22.276 27.825,-46.335 31.598,-73.148c3.175,-22.564 -1.977,-46.247 -14.286,-65.402c-6.281,-9.773 -14.656,-18.555 -24.286,-25.056c-10.817,-7.303 -23.532,-9.934 -35.236,-15.194c-0.446,-0.2 -1.122,0.528 -0.629,0.827Z" style="fill:#010101;fill-rule:nonzero;"/><path d="M367.158,152.194c6.491,4.54 6.109,12.012 0.932,17.299c-4.412,4.506 -10.899,5.006 -15.748,8.599c-0.883,0.654 -1.531,2.284 -0.689,3.213c2.768,3.047 8.241,0.871 11.279,-0.606c4.316,-2.1 7.883,-5.771 10.628,-9.641c2.306,-3.25 3.72,-7.145 3.321,-11.148c-0.491,-4.938 -4.766,-7.125 -8.77,-8.973c-0.679,-0.313 -1.668,0.755 -0.953,1.257Z" style="fill:#010101;fill-rule:nonzero;"/><path d="M389.295,135.318c9.607,-7.159 19.86,-13.616 30.349,-19.399c5.408,-2.982 10.979,-5.673 16.635,-8.148c3.165,-1.385 7.963,-3.719 10.71,-4.174c10.138,-1.679 20.813,-0.852 31.05,-1.358c11.316,-0.56 23.697,-1.064 34.193,-5.771c8.025,-3.6 13.77,-13.683 4.213,-19.293c-2.23,-1.31 -5.006,1.711 -4.416,3.876c0.442,1.626 0.86,3.345 1.083,5.016c0.069,0.521 -0.04,1.351 0.112,0.921c-0.27,0.761 -0.467,0.837 -0.158,0.52c-1.829,1.881 -6.372,3.051 -9.668,3.8c-10.997,2.499 -22.545,2.531 -33.746,3.287c-8.287,0.56 -18.006,-0.017 -25.776,3.333c-20.379,8.787 -40.131,20.109 -55.902,35.886c-1.194,1.191 -0.019,2.503 1.321,1.504Z" style="fill:#010101;fill-rule:nonzero;"/></g></svg>

<?xml version="1.0" encoding="UTF-8"?>
<svg width="545px" height="410px" viewBox="0 0 545 410" version="1.1" xmlns="http://www.w3.org/2000/svg" xmlns:xlink="http://www.w3.org/1999/xlink">
    <!-- Generator: Sketch 41 (35326) - http://www.bohemiancoding.com/sketch -->
    <title>meat</title>
    <desc>Created with Sketch.</desc>
    <defs></defs>
    <g id="Page-1" stroke="none" stroke-width="1" fill="none" fill-rule="evenodd">
        <g id="Layer_1" transform="translate(-4302.000000, -5499.000000)" fill="#010101">
            <g id="Layer_1_3_">
                <g id="meat" transform="translate(4302.000000, 5499.000000)">
                    <path d="M60.58,135.559 C41.861,134.497 24.979,143.412 14.892,159.226 C4.764,175.104 0.638,195.05 0.541,213.684 C0.468,227.961 4.038,242.01 6.697,255.948 C9.492,270.6 9.633,285.241 11.371,299.989 C12.911,313.049 16.424,325.473 22.778,337.024 C28.535,347.489 36.614,356.788 45.16,365.059 C79.553,398.345 130.675,416.31 178.166,407.291 C198.374,403.454 219.28,394.432 230.402,376.184 C239.793,360.778 240.703,342.695 237.311,325.329 C233.744,307.063 226.344,289.846 217.64,273.481 C207.065,253.597 194.698,234.444 181.078,216.518 C165.922,196.569 148.568,178.423 128.709,163.114 C118.752,155.438 108.033,148.774 96.746,143.243 C91.321,140.585 85.722,138.3 80.035,136.268 C77.053,135.204 74.032,134.37 70.964,133.596 C67.352,132.686 63.358,133.358 59.685,133.658 C55.668,133.986 50.809,140.001 55.248,143.034 C57.552,144.608 59.785,146.72 62.417,147.641 C65.255,148.633 68.057,149.725 70.889,150.736 C77.047,152.934 83.028,155.609 88.87,158.538 C100.115,164.174 110.633,171.19 120.528,178.931 C140.445,194.51 157.344,214.04 172.259,234.346 C185.161,251.911 197.002,270.507 206.776,290.006 C214.869,306.152 221.843,323.619 223.529,341.739 C225.034,357.913 220.783,372.208 208.55,381.807 C192.022,394.78 166.154,396.71 145.978,395.024 C121.849,393.007 98.51,384.522 77.999,371.818 C57.587,359.174 38.509,340.837 28.931,318.514 C20.669,299.26 22.7,278.209 18.833,258.032 C15.099,238.539 9.073,219.623 10.035,199.57 C10.71,185.484 14.209,171.22 22.04,159.338 C30.726,146.161 43.321,139.389 59.197,139.595 C61.106,139.62 63.051,135.699 60.58,135.559 L60.58,135.559 Z" id="Shape"></path>
                    <path d="M45.166,139.934 C51.182,133.047 60.197,128.978 68.517,125.649 C78.81,121.531 89.565,118.352 100.343,115.792 C122.033,110.64 144.098,106.053 166.102,102.501 C192.364,98.261 220.627,96.591 245.665,107.202 C255.712,111.459 264.871,120.612 276.247,120.419 C282.297,120.316 288.979,116.987 293.95,113.81 C299.065,110.539 302.899,105.883 305.206,100.283 C306.954,96.042 308.013,91.647 310.665,87.825 C312.569,85.08 315.33,83.887 319.103,82.878 C326.265,80.962 335.185,83.928 340.635,88.671 C343.787,91.414 345.854,94.721 347.18,98.65 C348.606,102.872 346.633,107.72 345.559,111.823 C344.376,116.346 343.032,121.034 343.29,125.759 C343.559,130.677 347.518,133.353 351.481,135.447 C359.581,139.727 369.327,141.229 376.368,147.317 C383.128,153.161 390.275,162.362 388.664,171.899 C387.047,181.465 374.861,184.055 367.037,186.067 C354.758,189.223 341.889,193.698 335.343,205.477 C331.652,212.119 331.5,219.955 329.78,227.204 C327.196,238.083 324.255,248.907 320.532,259.456 C313.87,278.335 304.211,295.541 292.747,311.895 C281.444,328.022 268.405,342.842 253.514,355.743 C246.44,361.871 238.911,367.382 230.946,372.29 C226.902,374.781 222.719,377.04 218.472,379.162 C213.689,381.552 209.535,384.482 204.975,387.223 C202.292,388.834 198.415,396.274 204.195,396.747 C206.925,396.971 209.677,397.201 212.393,396.755 C215.871,396.182 218.792,394.099 221.933,392.611 C228.137,389.671 234.088,386.216 239.863,382.509 C251.35,375.135 261.987,366.469 271.818,357.018 C291.418,338.177 307.612,316.127 321.112,292.595 C334.792,268.751 342.927,241.227 347.655,214.276 C348.292,210.645 349.082,208.359 352.157,206.203 C357.038,202.78 363.627,201.741 369.289,200.286 C381.06,197.261 392.855,192.036 399.778,181.52 C412.056,162.869 399.449,137.866 380.601,129.115 C376.282,127.109 371.746,125.563 367.341,123.759 C365.258,122.905 363.213,121.97 361.223,120.917 C360.413,120.489 359.654,119.991 358.9,119.475 C358.254,119.032 359.401,121.562 359.304,119.793 C359.097,115.985 361.275,110.716 362.265,106.761 C363.616,101.367 364.126,96.418 362.81,90.989 C358.029,71.261 333.96,63.402 316.302,68.843 C305.331,72.223 297.198,81.02 293.023,91.479 C291.836,94.451 290.595,99.381 289.06,100.869 C286.493,103.357 280.864,105.979 277.281,104.534 C272.952,102.788 269.099,99.692 264.936,97.573 C259.561,94.839 254.23,92.341 248.486,90.449 C237.067,86.688 225.377,85.281 213.394,85.001 C188.639,84.422 163.88,89.989 139.972,95.819 C121.671,100.282 103.411,105.034 85.526,110.971 C69.433,116.314 50.889,123.379 40.105,137.2 C37.008,141.165 42.439,143.053 45.166,139.934 L45.166,139.934 Z" id="Shape"></path>
                    <path d="M75.498,253.202 C75.969,253.141 76.623,253.105 76.914,252.659 C77.16,252.284 77.187,251.77 76.985,251.365 C76.836,251.066 76.403,251.255 76.305,251.504 C76.213,251.736 76.213,251.995 76.122,252.222 C76.229,251.954 76.552,252.003 76.354,251.99 C76.212,251.98 76.071,251.957 75.93,251.937 C75.054,251.816 74.595,253.317 75.498,253.202 L75.498,253.202 Z" id="Shape"></path>
                    <path d="M74.208,245.299 C69.143,256.397 77.204,270.506 82.748,279.889 C90.225,292.542 100.002,305.581 112.889,313.141 C124.071,319.701 136.423,315.509 140.319,302.784 C142.729,294.914 138.881,285.527 135.68,278.481 C131.456,269.187 125.742,260.466 119.597,252.342 C112.184,242.54 103.901,234.909 92.231,230.543 C86.691,228.47 80.932,227.451 75.451,230.225 C69.382,233.296 66.245,243.385 72.726,247.405 C75.097,248.876 78.668,246.537 79.565,244.298 C80.452,242.086 80.88,240.299 80.975,237.913 C81.03,236.545 80.366,239.086 79.121,239.548 C80.978,238.859 85.465,240.216 87.947,240.991 C94.151,242.929 99.795,246.262 104.37,250.834 C111.006,257.466 116.557,265.438 121.521,273.357 C126.415,281.165 131.328,290.275 132.134,299.609 C133.451,314.829 117.43,306.678 110.964,301.409 C98.909,291.583 89.262,278.097 82.421,264.225 C79.967,259.247 75.921,251.198 77.194,245.438 C77.651,243.38 74.797,244.004 74.208,245.299 L74.208,245.299 Z" id="Shape"></path>
                    <path d="M349.187,89.01 C360.636,83.863 371.39,77.397 382.014,70.728 C392.644,64.055 403.647,56.957 412.884,48.446 C422.038,40.01 428.974,30.231 435.547,19.741 C437.306,16.934 439.889,11.276 443.23,10.033 C446.894,8.67 452.408,20.087 453.737,22.214 C459.131,30.839 464.998,39.364 472.654,46.149 C480.894,53.451 490.758,58.31 501.106,61.834 C509.894,64.827 519.676,67.758 526.723,74.083 C534.413,80.986 533.763,91.398 529.153,99.936 C524.319,108.889 513.436,113.762 504.128,116.28 C490.248,120.034 475.584,116.559 461.537,115.885 C447.161,115.195 434.822,118.11 422.946,126.289 C413.14,133.043 404.386,141.717 392.342,144.147 C386.826,145.26 383.829,155.929 391.408,155.291 C403.418,154.281 413.157,146.39 422.43,139.402 C426.873,136.054 431.397,132.906 436.421,130.48 C442.771,127.415 450.848,127.491 457.723,127.823 C471.651,128.496 485.449,131.351 499.357,128.822 C510.601,126.777 521.223,122.031 529.992,114.667 C538.785,107.283 544.269,96.724 544.987,85.275 C545.628,75.076 540.627,67.227 532.593,61.407 C524.667,55.665 514.67,52.917 505.515,49.832 C495.592,46.487 485.919,40.916 478.418,33.588 C473.825,29.102 469.911,23.933 466.089,18.793 C461.778,12.995 457.482,5.742 451.066,2.087 C438.459,-5.095 428.938,15.756 424.06,23.477 C415.144,37.583 402.641,49.768 389.088,59.418 C375.634,68.998 360.86,76.543 347.642,86.436 C345.861,87.767 347.215,89.897 349.187,89.01 L349.187,89.01 Z" id="Shape"></path>
                    <path d="M45.821,155.693 C28.872,155.696 23.941,176.68 22.454,190.12 C19.957,212.684 30.686,233.294 31.669,255.658 C32.246,268.812 30.722,281.829 33.261,294.878 C35.777,307.807 42.417,318.29 50.52,328.439 C65.941,347.755 86.097,363.701 108.991,373.145 C122.978,378.916 137.615,381.499 152.574,383.167 C167.803,384.866 183.618,384.305 196.25,374.616 C207.034,366.345 213.089,353.948 212.226,340.323 C211.394,327.202 203.931,314.194 191.879,308.604 C189.506,307.503 184.837,310.609 186.409,313.405 C191.693,322.8 198.263,332.149 199.679,343.084 C201.048,353.653 196.248,362.692 187.27,368.178 C176.771,374.593 161.973,372.194 150.469,370.761 C137.88,369.193 125.783,366.615 114.026,361.738 C90.677,352.05 71.46,335.177 55.937,315.504 C47.58,304.913 43.248,293.384 42.129,279.981 C41.012,266.589 42.239,253.285 39.472,240.022 C36.007,223.422 29.217,208.085 28.974,190.915 C28.818,179.812 30.527,158.3 45.45,157.439 C46.407,157.381 47.096,155.693 45.821,155.693 L45.821,155.693 Z" id="Shape"></path>
                    <path d="M57.181,163.163 C70.603,169.112 82.5,176.722 93.788,186.084 C104.425,194.907 114.328,204.665 124.425,214.095 C144.299,232.655 165.806,253.446 174.575,279.879 C176.143,284.607 184.22,279.536 182.692,275.252 C173.075,248.276 151.248,227.499 130.488,208.774 C120.012,199.326 109.417,189.928 98.287,181.256 C86.452,172.035 73.03,163.882 57.939,161.916 C57.398,161.846 56.442,162.834 57.181,163.163 L57.181,163.163 Z" id="Shape"></path>
                    <path d="M238.321,124.979 C247.629,130.616 257.469,135.464 266.627,141.35 C276.225,147.518 284.068,156.188 290.238,165.726 C302.16,184.154 307.543,207.191 305.086,228.967 C302.332,253.384 290.078,276.834 276.377,296.804 C269.764,306.443 263.646,316.789 255.054,324.848 C250.81,328.828 245.295,331.796 240.586,335.222 C239.229,336.209 238.029,337.461 236.815,338.613 C236.096,339.296 235.377,339.977 234.647,340.648 C233.585,341.624 232.633,341.76 235.163,340.76 C236.434,341.009 237.704,341.258 238.976,341.508 C238.941,341.468 238.905,341.429 238.87,341.391 C239.071,342.326 239.273,343.262 239.474,344.198 C239.49,343.862 239.572,343.541 239.719,343.234 C240.257,341.62 239.107,339.904 237.502,339.606 C235.105,339.162 232.995,340.92 231.903,342.869 C231.257,344.022 230.577,345.714 231.277,347.004 C231.908,348.167 233.057,349.067 234.489,348.797 C237.877,348.155 240.079,345.72 242.491,343.433 C246.606,339.531 251.479,336.706 256.065,333.412 C266.758,325.732 274.026,313.778 281.16,302.952 C295.841,280.676 308.985,256.617 312.758,229.804 C315.933,207.24 310.781,183.557 298.472,164.402 C292.191,154.629 283.816,145.847 274.186,139.346 C263.369,132.043 250.654,129.412 238.95,124.152 C238.504,123.952 237.828,124.68 238.321,124.979 L238.321,124.979 Z" id="Shape"></path>
                    <path d="M367.158,152.194 C373.649,156.734 373.267,164.206 368.09,169.493 C363.678,173.999 357.191,174.499 352.342,178.092 C351.459,178.746 350.811,180.376 351.653,181.305 C354.421,184.352 359.894,182.176 362.932,180.699 C367.248,178.599 370.815,174.928 373.56,171.058 C375.866,167.808 377.28,163.913 376.881,159.91 C376.39,154.972 372.115,152.785 368.111,150.937 C367.432,150.624 366.443,151.692 367.158,152.194 L367.158,152.194 Z" id="Shape"></path>
                    <path d="M389.295,135.318 C398.902,128.159 409.155,121.702 419.644,115.919 C425.052,112.937 430.623,110.246 436.279,107.771 C439.444,106.386 444.242,104.052 446.989,103.597 C457.127,101.918 467.802,102.745 478.039,102.239 C489.355,101.679 501.736,101.175 512.232,96.468 C520.257,92.868 526.002,82.785 516.445,77.175 C514.215,75.865 511.439,78.886 512.029,81.051 C512.471,82.677 512.889,84.396 513.112,86.067 C513.181,86.588 513.072,87.418 513.224,86.988 C512.954,87.749 512.757,87.825 513.066,87.508 C511.237,89.389 506.694,90.559 503.398,91.308 C492.401,93.807 480.853,93.839 469.652,94.595 C461.365,95.155 451.646,94.578 443.876,97.928 C423.497,106.715 403.745,118.037 387.974,133.814 C386.78,135.005 387.955,136.317 389.295,135.318 L389.295,135.318 Z" id="Shape"></path>
                </g>
            </g>
        </g>
    </g>
</svg>
